shared/img/tn-yandex.svg

<?xml version="1.0" encoding="UTF-8"?>
<svg width="9px" height="15px" viewBox="0 0 9 15" version="1.1" xmlns="http://www.w3.org/2000/svg" xmlns:xlink="http://www.w3.org/1999/xlink">
    <!-- Generator: sketchtool 47.1 (45422) - http://www.bohemiancoding.com/sketch -->
    <title>0E67C24D-03B2-440F-81EA-25CC8231EF33</title>
    <desc>Created with sketchtool.</desc>
    <defs></defs>
    <g id="V4--RC-Updates" stroke="none" stroke-width="1" fill="none" fill-rule="evenodd">
        <g id="ASSETS--Pill-Icons" transform="translate(-183.000000, -228.000000)" fill-rule="nonzero" fill="#FFFFFF">
            <g id="yandex" transform="translate(183.000000, 228.000000)">
                <path d="M4.14697716,7.99267337 C4.80836161,5.53053443 5.69489822,3.18238341 6.45947741,0.811434806 C6.5364385,0.503678607 6.75064861,0.245349098 7.04369308,0.106892202 C7.33673756,-0.0315646942 7.67805314,-0.0357085309 7.97456379,0.0955907078 C8.48115614,0.309887985 8.15280924,0.683768342 8.05430518,0.948220302 C7.5054968,2.51213448 6.90040038,4.0623701 6.31406665,5.62172476 C5.84499966,6.91206795 5.37593267,8.21153016 4.85995898,9.49731383 C4.74867775,9.81697731 4.70092345,10.1542892 4.71923888,10.4912884 C4.71923888,11.7861911 4.69578553,13.0856534 4.71923888,14.3805561 C4.71923888,14.8729838 4.55037477,15.0416859 4.0625451,14.9915313 C3.65445682,14.9459361 3.15724581,15.1146382 3.1900805,14.4079131 C3.22760586,13.5370455 3.14786447,12.6570588 3.21822452,11.7861911 C3.29458691,10.5564146 3.06951847,9.32658419 2.56153073,8.19785161 C1.77349819,6.28893402 1.01360967,4.37241723 0.281865162,2.44830125 C0.169289085,2.1610517 -0.299777905,1.65038585 0.295937172,1.49536229 C0.765004161,1.37225534 1.50613,1.12604145 1.80164221,1.98323056 C2.40204795,3.74320395 3.05874174,5.48493927 3.67791017,7.23579362 C3.73460312,7.53505471 3.90131847,7.80406418 4.14697716,7.99267337 Z" id="Shape"></path>
            </g>
        </g>
    </g>
</svg>

<svg width="9" height="15" xmlns="http://www.w3.org/2000/svg"><path d="M4.147 7.993C4.808 5.53 5.695 3.183 6.459.81c.077-.307.292-.566.585-.704.293-.139.634-.143.93-.011.507.214.179.588.08.852-.549 1.564-1.154 3.114-1.74 4.674-.469 1.29-.938 2.59-1.454 3.875-.111.32-.16.657-.14.994 0 1.295-.024 2.595 0 3.89 0 .492-.17.66-.657.61-.409-.045-.906.124-.873-.583.038-.871-.042-1.75.028-2.622a7.592 7.592 0 0 0-.656-3.588 220.14 220.14 0 0 1-2.28-5.75C.169 2.161-.3 1.65.296 1.495c.469-.123 1.21-.369 1.506.488.6 1.76 1.257 3.502 1.876 5.253.057.3.223.568.469.757z" fill-rule="nonzero" fill="#FFF"/></svg>
